X:1
T:Peaceful Be
T:Peaceful Be
T:George Coles Stebbins, 1901
T:Karl Rudolf Hagenbach, 1846
T:Public Domain Courtesy of the Cyber Hymnal™
T:Public Domain Courtesy of the Cyber Hymnal™
C:George Coles Stebbins, 1901
Z:Public Domain
Z:Courtesy of the Cyber Hymnal™
%%score ( 1 2 ) ( 3 4 )
L:1/8
Q:1/4=90
M:2/4
K:Db
V:1 treble 
V:2 treble 
V:3 bass 
V:4 bass 
V:1
 [DF][EG] | [FA][FA] [^E=G][FA] | [GB][FA] [DF]>[Fd] | c4- | [Gc]2 [CE][DF] | [EG][EG] [=DF][EG] | %6
w: 1.~Since thy|Fa- ther’s arm sus-|tains thee, Peace- ful|be|When a chast-|ening hand re- strains|
w: 2.~With- out|mur- mur, un- com-|plain- ing, In His|hand|Leave what- ev-|er things thou canst|
w: 3.~Fear- est|some- times that thy|Fa- ther Hath for-|got|When the clouds|a- round thee ga-|
w: 4.~To His|own the Sav- ior|giv- eth Dai- ly|strength|To each trou-|bled soul that liv-|
 [Gc][GB] [CE]>[GB] | A4- | [FA]2 [DF][EG] | [FA][FA] [=E=G][FA] | [GB][FA] [DF][FA] | %11
w: thee, It is He|(it|His love in|full com- plete- ness|Fills the mea- sure|
w: not Un- der- stand|(un-|the world thy|fol- ly spurn- eth,|From thy faith in|
w: ther, Doubt Him not|(doubt|ways hath the|day- light brok- en,|Al- ways hath He|
w: eth, Peace at length|(peace|est lambs have|larg- est shar- ing|Of the ten- der|
 [Fd][Fd] [Ec][Fd] | [Ge][Fd] [FA][F=A] | [GB][GB] [=Ec]"^riten."[EB] | ([FA][Ad]) [GA]>E | A4- | %16
w: of thy weak- ness;|If He wound thy|spir- it sore, Trust|Him * more (trust|Him|
w: pi- ty turn- eth,|Peace thy in- most|soul shall fill, Ly-|ing * still (ly-|ing|
w: com- fort spok- en,|Bet- ter hath He|been for years, Than|thy * fears (than|thy|
w: Shep- herd’s car- ing,|Ask Him not then,|when or how, On-|ly * bow (on-|ly|
 [FA]2 |] %17
w: |
w: |
w: |
w: |
V:2
 x2 | x4 | x4 | G2 G>G | x4 | x4 | x4 | F2 G>G | x4 | x4 | x4 | x4 | x4 | x4 | x7/2 E/ | F2 G>E | %16
w: |||* (peace- ful||||* is He);||||||||* more). *|
w: |||* (in His||||* der- stand).||||||||* still). *|
w: |||* (hath for-||||* Him not);||||||||* fears). *|
w: |||* (dai- ly||||* at length).||||||||* bow). *|
 x2 |] %17
w: |
w: |
w: |
w: |
V:3
 [D,A,][D,A,] | [D,D][D,D] [D,D][D,D] | [D,D][D,D] [D,A,]>[D,A,] | [E,A,]2 [A,C]>[A,E] | %4
 A,2 [A,,A,][A,,A,] | [A,,A,][A,,A,] [A,,A,][A,,A,] | [A,,A,][A,,A,] [A,,A,]>[A,,C] | %7
 [D,D]2 [D,B,]>[D,B,] | [D,A,]2 [D,A,][D,A,] | [D,D][D,D] [D,D][D,D] | [D,D][D,D] [D,A,][D,A,] | %11
 [D,A,][D,A,] [D,A,][D,A,] | [D,A,][D,A,] [D,D][D,D] | [G,D][G,D] [=G,D][G,D] | D2 [E,C]>[A,C] | %15
 D2 B,>C | [D,D]2 |] %17
V:4
 x2 | x4 | x4 | x4 | A,2 x2 | x4 | x4 | x4 | x4 | x4 | x4 | x4 | x4 | x4 | (A,F,) x2 | D,4- | x2 |] %17

